public/images/mail.svg

<svg xmlns:xlink="http://www.w3.org/1999/xlink" xmlns="http://www.w3.org/2000/svg" width="22" height="20" viewBox="0 0 22 20" fill="none">
<path d="M1.60805 3.64824C1 4.93577 1 6.77405 1 10C1 13.7497 1 15.6246 1.95491 16.9389C2.26331 17.3634 2.6366 17.7367 3.06107 18.0451C4.3754 19 6.25027 19 10 19H12C15.7497 19 17.6246 19 18.9389 18.0451C19.3634 17.7367 19.7367 17.3634 20.0451 16.9389C21 15.6246 21 13.7497 21 10C21 6.75125 21 4.90985 20.379 3.62103M1.60805 3.64824C1.70677 3.4392 1.82153 3.24467 1.95491 3.06107C2.26331 2.6366 2.6366 2.26331 3.06107 1.95491C4.3754 1 6.25027 1 10 1H12C15.7497 1 17.6246 1 18.9389 1.95491C19.3634 2.26331 19.7367 2.6366 20.0451 3.06107C20.1727 3.23667 20.2832 3.42228 20.379 3.62103M1.60805 3.64824L2 4L3.92893 5.92893C7.26227 9.26227 8.92893 10.9289 11 10.9289C13.0711 10.9289 14.7377 9.26227 18.0711 5.92894L20 4L20.379 3.62103" stroke="#8D9AC5" stroke-width="2"/>
</svg>

<svg xmlns="http://www.w3.org/2000/svg" width="22" height="20" fill="none"><path stroke="#8D9AC5" stroke-width="2" d="M1.608 3.648C1 4.936 1 6.774 1 10c0 3.75 0 5.625.955 6.939a5 5 0 0 0 1.106 1.106C4.375 19 6.251 19 10 19h2c3.75 0 5.625 0 6.939-.955a5 5 0 0 0 1.106-1.106C21 15.625 21 13.749 21 10c0-3.249 0-5.09-.621-6.379m-18.771.027q.148-.312.347-.587A5 5 0 0 1 3.06 1.955C4.375 1 6.251 1 10 1h2c3.75 0 5.625 0 6.939.955a5 5 0 0 1 1.106 1.106q.191.263.334.56m-18.771.027L2 4l1.929 1.929c3.333 3.333 5 5 7.071 5s3.738-1.667 7.071-5L20 4l.379-.379"/></svg>
